X: 1239
T: Kaçsam Bırakıp...
C: Mehveş Hanım
O: Turkey
F: http://compmusic.upf.edu/node/140
N: nihavent--sarki--semai--kacsam_birakip--mehves_hanim
N: makam= nihavent
N: form= sarki
N: usul= semai = 3/4
M: 3/4
L: 1/16
K: C _B _e  
Q: 1/4=150
%%MIDI tuningsystem comma53
G12  | B2A2 B4 c4  | d12  | g8 d4  | =e8 f4  | d12  | \
w:  ARANAĞME  |   |   |   |   |   | 
B4 A4 B4  | G12  | B2A2 B4 c4  | d4 c4 B4  | 
w:   |   |   |   | 
c4 d4 e4  | d8 e4  | ^f8 d4  | g8 ^f4  | a8 ^f4  | d12  | \
w:   |   |   |   |   |   | 
g4 e3d c4  | a4 ^f3e d4  | b4 e2d2 c2d2  | 
w:   |   |   | 
e12  | d4 e4 ^f4  | g4 a8  | ^f4 e2d2 ^c2e2  | d12  | \
w:   |   |   |   |   | 
d4 c4 B4  | c4 d4 e4  | d2c2 B2A2 B2c2  | 
w:   |   |   | 
d12  | c4 c2=B2 c2A2  | B4 B2A2 B2G2  | \
w:   |   |   | 
d2c2 B2A2 G2^F2  | G12  | G12  | B2A2 B4 c4  | 
w:   |   |  ARANAĞME  |   | 
d12  | g8 d4  | =e8 f4  | d12  | B4 A4 B4  | G12  | \
w:   |   |   |   |   |   | 
B2A2 B4 c4  | d4 c4 B4  | c4 d4 e4  | d8 e4  | 
w:   |   |   |   | 
^f8 d4  | g8 ^f4  | a8 ^f4  | d12  | g4 e3d c4  | \
w:   |   |   |   |   | 
a4 ^f3e d4  | b4 e2d2 c2d2  | e12  | 
w:   |   |   | 
d4 e4 ^f4  | g4 a8  | ^f4 e2d2 ^c2e2  | d12  | \
w:   |   |   |   | 
d4 c4 B4  | c4 d4 e4  | d2c2 B2A2 B2c2  | 
w:   |   |   | 
d12  | c4 c2=B2 c2A2  | B4 B2A2 B2G2  | \
w:   |   |   | 
d2c2 B2A2 G2^F2  | G12  | d4 c4 B4  | 
w:   |   |  Kaç sam   | 
c2d2 e4 z4  | c4 d4 B4  | G12  | d4 ^c4 d4  | \
w:  bı ra kıp   |  sen den_ u  |  zak   |  yol  | 
e2d2 ^c2d2 e2^f2  | g12  | g12  | d4 c4 B4  | 
w:  la *  *  *  ra   |  git  |  sem    |  Kaç sam   | 
c2d2 e4 z4  | c4 d4 B4  | G12  | d4 ^c4 d4  | \
w:  bı ra kıp   |  sen den_ u  |  zak   |  yol  | 
e2d2 ^c2d2 e2^f2  | g12  | g12  | g4 e3d c4  | 
w:  la *  *  *  ra   |  git  |  sem    |  Kal bim   | 
a4 ^f3e d4  | b4 e2d2 c2d2  | e12  | d4 e4 ^f4  | \
w:  ya nı *  yor   |  is mi *  ni   |  her   |  kim  | 
g4 a8  | ^f4 e2d2 ^c2e2  | d12  | 
w:  den   |  i şit  |  sem    | 
d4 c4 B4  | c2d2 e4 z4  | d2c2 B2A2 B2c2  | d12  | \
w:  Kal bim   |  ya nı yor   |  is *  mi *  ni   |  her   | 
c4 c2=B2 c2A2  | G4 d2^c2 d4  | 
w:  kim  |  den   | 
A4 B3A G2^F2  | G4 _2/4B8  | _2/4B12  | \
w:  i şit  |  sem   SAZ  |  Der  | 
_2/4B4 d2c2 B2A2  | G4 _1/4e4 d2c2  | _2/4B12  | d12  | \
w:  din le  *  u  |  fuk lar da  sö  |  nen   |  gün   | 
^f4 _3/4e2d2 d4  | 
w:  gi bi   | 
a2g2 b3a g2a2  | g4 d4 c4  | _2/4B12  | \
w:  bit  |  sem    |  Der  | 
_2/4B4 d2c2 B2A2  | G4 _1/4e4 d2c2  | _2/4B12  | d12  | 
w:  din le  *  u  |  fuk lar da  sö  |  nen   |  gün   | 
^f4 _3/4e2d2 d4  | a2g2 b3a g2a2  | g12  | \
w:  gi bi   |  bit  |  sem    | 
g4 e3d c4  | a4 ^f3e d4  | b4 e2d2 c2d2  | 
w:  Kal bim   |  ya nı *  yor   |  is mi *  ni   | 
e12  | d4 e4 ^f4  | g4 a8  | ^f4 e2d2 ^c2e2  | d12  | \
w:  her   |  kim  |  den   |  i şit  |  sem    | 
d4 c4 B4  | c2d2 e4 z4  | d2c2 B2A2 B2c2  | 
w:  Kal bim   |  ya nı yor   |  is *  mi *  ni   | 
d12  | c4 c2=B2 c2A2  | G4 d2^c2 d4  | A4 B3A G2^F2  | \
w:  her   |  kim  |  den   |  i şit  | 
G4 |
w:  sem    | 


